;generated by ffslicer 2.4.4 03/26/25 17:16:11
;gcode_flavor: flashforge
;machine_type: Dreamer
;right_extruder_material: PLA
;right_extruder_material_density: 1.24
;filament_diameter0: 1.75
;right_extruder_temperature: 200
;layer_height: 0.18
;perimeter_shells: 2
;top_solid_layers: 3
;bottom_solid_layers: 3
;fill_density: 15%
;fill_pattern: hexagon
;base_print_speed: 60
;travel_speed: 80
;platform_temperature: 50
;right_extruder_temperature_raft0: 0
;right_extruder_temperature_reset: 
;left_extruder_temperature_reset: 
;layer_total_count: 166
;start gcode
M118 X24.05 Y15.00 Z30.10 T0
M140 S50 T0
M104 S200 T0
M104 S0 T1
M107
G90
G28
M132 X Y Z A B
G1 Z50.000 F420
G161 X Y F3300
M7 T0
M6 T0
M651 S255
M907 X100 Y100 Z40 A80 B20
;layer_count: 166
M108 T0
G1 X-15.00 Y-15.00 F4800
;preExtrude:0.20
G1 Z0.200 F420
;structure:pre-extrude
G1 X-15.00 Y-15.00 F4800
G1 X15.00 Y-15.00 E4.3504 F1200
G1 X15.00 Y15.00 E8.7009
G1 X-15.00 Y15.00 E13.0513
G1 X-15.00 Y-15.00 E17.4017
;raft
;layer:0.28
G1 E16.1017 F1800
G1 Z0.280 F420
G1 X-4.40 Y-9.40 F4200
G1 E17.4017 F1800
;structure:shell-inner
G1 X-4.40 Y-9.40 F4200
G1 X4.40 Y-9.40 E17.8483 F600
G1 X4.40 Y-8.78 E17.8798
G1 X4.40 Y0.64 E18.3579
G1 X4.40 Y9.40 E18.8025
G1 X3.74 Y9.40 E18.8360
G1 X-4.40 Y9.40 E19.2492
G1 X-4.40 Y8.12 E19.3141
G1 X-4.40 Y0.70 E19.6908
G1 X-4.40 Y-1.30 E19.7923
G1 X-4.40 Y-3.30 E19.8938
G1 X-4.40 Y-5.30 E19.9953
G1 X-4.40 Y-7.30 E20.0968
G1 X-4.40 Y-9.30 E20.1983 F540
;structure:shell-outer
G1 X-4.80 Y-9.80 E20.1983 F300
G1 X4.80 Y-9.80 E20.6855 F600
G1 X4.80 Y9.80 E21.6803
G1 X-4.80 Y9.80 E22.1676
G1 X-4.80 Y-9.70 E23.1573
G1 X-4.40 Y-9.30 E23.1669 F300
G1 E21.8669 F1800
G1 X3.67 Y-9.06 F4200
G1 E23.1669 F1800
;structure:infill-solid
G1 X3.67 Y-9.06 F4200
G1 X4.06 Y-8.67 E23.1949 F600
G1 X4.06 Y-8.09 E23.2243
G1 X3.09 Y-9.06 E23.2939
G1 X2.52 Y-9.06 E23.3228
G1 X4.06 Y-7.52 E23.4334
G1 X4.06 Y-6.94 E23.4628
G1 X1.95 Y-9.06 E23.6146
G1 X1.37 Y-9.06 E23.6441
G1 X4.06 Y-6.37 E23.8372
G1 X4.06 Y-5.80 E23.8661
G1 X0.80 Y-9.06 E24.1001
G1 X0.22 Y-9.06 E24.1295
G1 X4.06 Y-5.22 E24.4052
G1 X4.06 Y-4.65 E24.4341
G1 X-0.35 Y-9.06 E24.7506
G1 X-0.92 Y-9.06 E24.7796
G1 X4.06 Y-4.07 E25.1374
G1 X4.06 Y-3.50 E25.1663
G1 X-1.50 Y-9.06 E25.5654
G1 X-2.07 Y-9.06 E25.5943
G1 X4.06 Y-2.92 E26.0347
G1 X4.06 Y-2.35 E26.0636
G1 X-2.65 Y-9.06 E26.5452
G1 X-3.22 Y-9.06 E26.5742
G1 X4.06 Y-1.78 E27.0967
G1 X4.06 Y-1.20 E27.1262
G1 X-3.80 Y-9.06 E27.6903
G1 X-4.06 Y-9.06 E27.7035
G1 X-4.06 Y-8.75 E27.7193
G1 X4.06 Y-0.63 E28.3021
G1 X4.06 Y-0.05 E28.3315
G1 X-4.06 Y-8.17 E28.9144
G1 X-4.06 Y-7.60 E28.9433
G1 X4.06 Y0.52 E29.5262
G1 X4.06 Y1.09 E29.5551
G1 X-4.06 Y-7.02 E30.1376
G1 X-4.06 Y-6.45 E30.1665
G1 X4.06 Y1.67 E30.7493
G1 X4.06 Y2.24 E30.7783
G1 X-4.06 Y-5.88 E31.3611
G1 X-4.06 Y-5.30 E31.3905
G1 X4.06 Y2.82 E31.9734
G1 X4.06 Y3.39 E32.0023
G1 X-4.06 Y-4.73 E32.5852
G1 X-4.06 Y-4.15 E32.6146
G1 X4.06 Y3.96 E33.1971
G1 X4.06 Y4.54 E33.2265
G1 X-4.06 Y-3.58 E33.8093
G1 X-4.06 Y-3.01 E33.8383
G1 X4.06 Y5.11 E34.4211
G1 X4.06 Y5.69 E34.4506
G1 X-4.06 Y-2.43 E35.0334
G1 X-4.06 Y-1.86 E35.0623
G1 X4.06 Y6.26 E35.6452
G1 X4.06 Y6.84 E35.6746
G1 X-4.06 Y-1.28 E36.2574
G1 X-4.06 Y-0.71 E36.2864
G1 X4.06 Y7.41 E36.8692
G1 X4.06 Y7.98 E36.8981
G1 X-4.06 Y-0.13 E37.4806
G1 X-4.06 Y0.44 E37.5096
G1 X4.06 Y8.56 E38.0924
G1 X4.06 Y9.06 E38.1178
G1 X3.99 Y9.06 E38.1213
G1 X-4.06 Y1.01 E38.6991
G1 X-4.06 Y1.59 E38.7286
G1 X3.41 Y9.06 E39.2648
G1 X2.84 Y9.06 E39.2937
G1 X-4.06 Y2.16 E39.7890
G1 X-4.06 Y2.74 E39.8184
G1 X2.26 Y9.06 E40.2720
G1 X1.69 Y9.06 E40.3010
G1 X-4.06 Y3.31 E40.7137
G1 X-4.06 Y3.88 E40.7426
G1 X1.12 Y9.06 E41.1144
G1 X0.54 Y9.06 E41.1439
G1 X-4.06 Y4.46 E41.4741
G1 X-4.06 Y5.03 E41.5030
G1 X-0.03 Y9.06 E41.7923
G1 X-0.61 Y9.06 E41.8217
G1 X-4.06 Y5.61 E42.0693
G1 X-4.06 Y6.18 E42.0983
G1 X-1.18 Y9.06 E42.3050
G1 X-1.75 Y9.06 E42.3339
G1 X-4.06 Y6.76 E42.4994
G1 X-4.06 Y7.33 E42.5283
G1 X-2.33 Y9.06 E42.6525
G1 X-2.90 Y9.06 E42.6814
G1 X-4.06 Y7.90 E42.7647
G1 X-4.06 Y8.48 E42.7941
G1 X-3.48 Y9.06 E42.8357
G1 X-4.06 Y9.05 E42.8652
;layer:0.19
M106
G1 E41.5652 F1800
G1 Z0.470 F420
G1 X-4.40 Y-9.40 F4800
G1 E42.8652 F1800
;structure:shell-inner
G1 X-4.40 Y-9.40 F4800
G1 X4.40 Y-9.40 E43.1682 F2880
G1 X4.40 Y-8.38 E43.2034
G1 X4.40 Y1.44 E43.5416 F3024
G1 X4.40 Y9.40 E43.8157 F3168
G1 X2.54 Y9.40 E43.8798
G1 X-4.40 Y9.40 E44.1188 F3312
G1 X-4.40 Y6.52 E44.2180
G1 X-4.40 Y0.70 E44.4184 F3456
G1 X-4.40 Y-1.30 E44.4873
G1 X-4.40 Y-3.30 E44.5562
G1 X-4.40 Y-5.30 E44.6251 F1764
G1 X-4.40 Y-7.30 E44.6940 F1152
G1 X-4.40 Y-9.30 E44.7629 F540
;structure:shell-outer
G1 X-4.80 Y-9.80 E44.7629 F300
G1 X4.80 Y-9.80 E45.0935 F1800
G1 X4.80 Y9.80 E45.7685
G1 X-4.80 Y9.80 E46.0992
G1 X-4.80 Y-9.70 E46.7708
G1 X-4.40 Y-9.30 E46.7772 F300
G1 E45.4772 F1800
G1 X-4.06 Y-8.67 F4800
G1 E46.7772 F1800
;structure:infill-solid
G1 X-4.06 Y-8.67 F4800
G1 X-3.67 Y-9.06 E46.7962 F2520
G1 X-3.09 Y-9.06 E46.8162
G1 X-4.06 Y-8.09 E46.8635
G1 X-4.06 Y-7.52 E46.8831
G1 X-2.52 Y-9.06 E46.9581
G1 X-1.94 Y-9.06 E46.9781
G1 X-4.06 Y-6.94 E47.0813
G1 X-4.06 Y-6.37 E47.1010
G1 X-1.37 Y-9.06 E47.2320
G1 X-0.80 Y-9.06 E47.2516
G1 X-4.06 Y-5.80 E47.4104
G1 X-4.06 Y-5.22 E47.4304
G1 X-0.22 Y-9.06 E47.6174
G1 X0.35 Y-9.06 E47.6371
G1 X-4.06 Y-4.65 E47.8518
G1 X-4.06 Y-4.07 E47.8718
G1 X0.93 Y-9.06 E48.1149
G1 X1.50 Y-9.06 E48.1345
G1 X-4.06 Y-3.50 E48.4053
G1 X-4.06 Y-2.92 E48.4253
G1 X2.07 Y-9.06 E48.7241
G1 X2.65 Y-9.06 E48.7441
G1 X-4.06 Y-2.35 E49.0709
G1 X-4.06 Y-1.78 E49.0905
G1 X3.22 Y-9.06 E49.4451
G1 X3.80 Y-9.06 E49.4651
G1 X-4.06 Y-1.20 E49.8479
G1 X-4.06 Y-0.63 E49.8676
G1 X4.06 Y-8.75 E50.2631
G1 X4.06 Y-8.17 E50.2830
G1 X-4.06 Y-0.05 E50.6785
G1 X-4.06 Y0.52 E50.6982
G1 X4.06 Y-7.60 E51.0937
G1 X4.06 Y-7.02 E51.1137
G1 X-4.06 Y1.09 E51.5089
G1 X-4.06 Y1.67 E51.5289
G1 X4.06 Y-6.45 E51.9244
G1 X4.06 Y-5.88 E51.9440
G1 X-4.06 Y2.24 E52.3395
G1 X-4.06 Y2.82 E52.3595
G1 X4.06 Y-5.30 E52.7550
G1 X4.06 Y-4.73 E52.7746
G1 X-4.06 Y3.39 E53.1701
G1 X-4.06 Y3.96 E53.1898
G1 X4.06 Y-4.15 E53.5850
G1 X4.06 Y-3.58 E53.6046
G1 X-4.06 Y4.54 E54.0001
G1 X-4.06 Y5.11 E54.0198
G1 X4.06 Y-3.01 E54.4153
G1 X4.06 Y-2.43 E54.4353
G1 X-4.06 Y5.69 E54.8308
G1 X-4.06 Y6.26 E54.8504
G1 X4.06 Y-1.86 E55.2459
G1 X4.06 Y-1.28 E55.2659
G1 X-4.06 Y6.84 E55.6614
G1 X-4.06 Y7.41 E55.6810
G1 X4.06 Y-0.71 E56.0765
G1 X4.06 Y-0.13 E56.0965
G1 X-4.06 Y7.98 E56.4917
G1 X-4.06 Y8.56 E56.5117
G1 X4.06 Y0.44 E56.9072
G1 X4.06 Y1.01 E56.9268
G1 X-3.98 Y9.06 E57.3187
G1 X-3.41 Y9.06 E57.3383
G1 X4.06 Y1.59 E57.7022
G1 X4.06 Y2.16 E57.7218
G1 X-2.84 Y9.06 E58.0579
G1 X-2.26 Y9.06 E58.0778
G1 X4.06 Y2.74 E58.3857
G1 X4.06 Y3.31 E58.4053
G1 X-1.69 Y9.06 E58.6854
G1 X-1.11 Y9.06 E58.7053
G1 X4.06 Y3.88 E58.9574
G1 X4.06 Y4.46 E58.9774
G1 X-0.54 Y9.06 E59.2014
G1 X0.03 Y9.06 E59.2211
G1 X4.06 Y5.03 E59.4174
G1 X4.06 Y5.61 E59.4373
G1 X0.61 Y9.06 E59.6054
G1 X1.18 Y9.06 E59.6250
G1 X4.06 Y6.18 E59.7653
G1 X4.06 Y6.76 E59.7853
G1 X1.76 Y9.06 E59.8973
G1 X2.33 Y9.06 E59.9169
G1 X4.06 Y7.33 E60.0012
G1 X4.06 Y7.90 E60.0208
G1 X2.90 Y9.06 E60.0773
G1 X3.48 Y9.06 E60.0973
G1 X4.06 Y8.48 E60.1255
G1 X4.05 Y9.06 E60.1455
;layer:0.19
G1 E58.8455 F1800
G1 Z0.660 F420
G1 X-4.40 Y-9.40 F4800
G1 E60.1455 F1800
;structure:shell-inner
G1 X-4.40 Y-9.40 F4800
G1 X4.40 Y-9.40 E60.4486 F2880
G1 X4.40 Y-8.38 E60.4837
G1 X4.40 Y1.44 E60.8219 F3024
G1 X4.40 Y9.40 E61.0961 F3168
G1 X2.54 Y9.40 E61.1601
G1 X-4.40 Y9.40 E61.3992 F3312
G1 X-4.40 Y6.52 E61.4984
G1 X-4.40 Y0.70 E61.6988 F3456
G1 X-4.40 Y-1.30 E61.7677
G1 X-4.40 Y-3.30 E61.8366
G1 X-4.40 Y-5.30 E61.9054 F1764
G1 X-4.40 Y-7.30 E61.9743 F1152
G1 X-4.40 Y-9.30 E62.0432 F540
;structure:shell-outer
G1 X-4.80 Y-9.80 E62.0432 F300
G1 X4.80 Y-9.80 E62.3738 F1800
G1 X4.80 Y9.80 E63.0489
G1 X-4.80 Y9.80 E63.3795
G1 X-4.80 Y-9.70 E64.0511
G1 X-4.40 Y-9.30 E64.0576 F300
G1 E62.7576 F1800
G1 X3.67 Y-9.06 F4800
G1 E64.0576 F1800
;structure:infill-solid
G1 X3.67 Y-9.06 F4800
G1 X4.06 Y-8.67 E64.0766 F2520
G1 X4.06 Y-8.09 E64.0966
G1 X3.09 Y-9.06 E64.1438
G1 X2.52 Y-9.06 E64.1635
G1 X4.06 Y-7.52 E64.2385
G1 X4.06 Y-6.94 E64.2584
G1 X1.95 Y-9.06 E64.3615
G1 X1.37 Y-9.06 E64.3814
G1 X4.06 Y-6.37 E64.5124
G1 X4.06 Y-5.80 E64.5321
G1 X0.80 Y-9.06 E64.6909
G1 X0.22 Y-9.06 E64.7108
G1 X4.06 Y-5.22 E64.8979
G1 X4.06 Y-4.65 E64.9175
G1 X-0.35 Y-9.06 E65.1323
G1 X-0.92 Y-9.06 E65.1519
G1 X4.06 Y-4.07 E65.3947
G1 X4.06 Y-3.50 E65.4144
G1 X-1.50 Y-9.06 E65.6852
G1 X-2.07 Y-9.06 E65.7048
G1 X4.06 Y-2.92 E66.0036
G1 X4.06 Y-2.35 E66.0233
G1 X-2.65 Y-9.06 E66.3501
G1 X-3.22 Y-9.06 E66.3697
G1 X4.06 Y-1.78 E66.7243
G1 X4.06 Y-1.20 E66.7443
G1 X-3.80 Y-9.06 E67.1271
G1 X-4.06 Y-9.06 E67.1361
G1 X-4.06 Y-8.75 E67.1468
G1 X4.06 Y-0.63 E67.5423
G1 X4.06 Y-0.05 E67.5622
G1 X-4.06 Y-8.17 E67.9577
G1 X-4.06 Y-7.60 E67.9774
G1 X4.06 Y0.52 E68.3729
G1 X4.06 Y1.09 E68.3925
G1 X-4.06 Y-7.02 E68.7878
G1 X-4.06 Y-6.45 E68.8074
G1 X4.06 Y1.67 E69.2029
G1 X4.06 Y2.24 E69.2225
G1 X-4.06 Y-5.88 E69.6180
G1 X-4.06 Y-5.30 E69.6380
G1 X4.06 Y2.82 E70.0335
G1 X4.06 Y3.39 E70.0531
G1 X-4.06 Y-4.73 E70.4486
G1 X-4.06 Y-4.15 E70.4686
G1 X4.06 Y3.96 E70.8639
G1 X4.06 Y4.54 E70.8838
G1 X-4.06 Y-3.58 E71.2793
G1 X-4.06 Y-3.01 E71.2990
G1 X4.06 Y5.11 E71.6945
G1 X4.06 Y5.69 E71.7144
G1 X-4.06 Y-2.43 E72.1099
G1 X-4.06 Y-1.86 E72.1296
G1 X4.06 Y6.26 E72.5251
G1 X4.06 Y6.84 E72.5451
G1 X-4.06 Y-1.28 E72.9406
G1 X-4.06 Y-0.71 E72.9602
G1 X4.06 Y7.41 E73.3557
G1 X4.06 Y7.98 E73.3753
G1 X-4.06 Y-0.13 E73.7706
G1 X-4.06 Y0.44 E73.7902
G1 X4.06 Y8.56 E74.1857
G1 X4.06 Y9.06 E74.2029
G1 X3.99 Y9.06 E74.2053
G1 X-4.06 Y1.01 E74.5974
G1 X-4.06 Y1.59 E74.6174
G1 X3.41 Y9.06 E74.9812
G1 X2.84 Y9.06 E75.0009
G1 X-4.06 Y2.16 E75.3370
G1 X-4.06 Y2.74 E75.3569
G1 X2.26 Y9.06 E75.6648
G1 X1.69 Y9.06 E75.6844
G1 X-4.06 Y3.31 E75.9645
G1 X-4.06 Y3.88 E75.9841
G1 X1.12 Y9.06 E76.2364
G1 X0.54 Y9.06 E76.2564
G1 X-4.06 Y4.46 E76.4804
G1 X-4.06 Y5.03 E76.5001
G1 X-0.03 Y9.06 E76.6963
G1 X-0.61 Y9.06 E76.7163
G1 X-4.06 Y5.61 E76.8844
G1 X-4.06 Y6.18 E76.9040
G1 X-1.18 Y9.06 E77.0443
G1 X-1.75 Y9.06 E77.0639
G1 X-4.06 Y6.76 E77.1762
G1 X-4.06 Y7.33 E77.1958
G1 X-2.33 Y9.06 E77.2801
G1 X-2.90 Y9.06 E77.2997
G1 X-4.06 Y7.90 E77.3562
G1 X-4.06 Y8.48 E77.3762
G1 X-3.48 Y9.06 E77.4044
G1 X-4.06 Y9.05 E77.4244
;layer:0.18
G1 E76.1244 F1800
G1 X-4.40 Y-9.40 F4800
G1 Z0.840 F420
G1 E77.4244 F1800
;structure:shell-inner
G1 X-4.40 Y-9.40 F4800
G1 X4.40 Y-9.40 E77.7115 F2880
G1 X4.40 Y-8.38 E77.7448
G1 X4.40 Y1.44 E78.0652 F3024
G1 X4.40 Y9.40 E78.3249 F3168
G1 X2.54 Y9.40 E78.3856
G1 X-4.40 Y9.40 E78.6121 F3312
G1 X-4.40 Y6.52 E78.7060
G1 X-4.40 Y0.70 E78.8959 F3456
G1 X-4.40 Y-1.30 E78.9612
G1 X-4.40 Y-3.30 E79.0264
G1 X-4.40 Y-5.30 E79.0917 F1764
G1 X-4.40 Y-7.30 E79.1570 F1152
G1 X-4.40 Y-9.30 E79.2222 F540
;structure:shell-outer
G1 X-4.80 Y-9.80 E79.2222 F300
G1 X4.80 Y-9.80 E79.5354 F1800
G1 X4.80 Y9.80 E80.1750
G1 X-4.80 Y9.80 E80.4882
G1 X-4.80 Y-9.70 E81.1244
G1 X-4.40 Y-9.30 E81.1306 F300
;layer:0.18
G1 Z1.020 F420
;structure:shell-inner
G1 X-4.40 Y-9.40 F4800
G1 X4.40 Y-9.40 E81.4177 F3600
G1 X4.40 Y9.40 E82.0311
G1 X-4.40 Y9.40 E82.3182
G1 X-4.40 Y0.70 E82.6021
G1 X-4.40 Y-1.30 E82.6674 F2988
G1 X-4.40 Y-3.30 E82.7326 F2376
G1 X-4.40 Y-5.30 E82.7979 F1764
G1 X-4.40 Y-7.30 E82.8631 F1152
G1 X-4.40 Y-9.30 E82.9284 F540
;structure:shell-outer
G1 X-4.80 Y-9.80 E82.9284 F300
G1 X4.80 Y-9.80 E83.2416 F1800
G1 X4.80 Y9.80 E83.8811
G1 X-4.80 Y9.80 E84.1944
G1 X-4.80 Y-9.70 E84.8306
G1 X-4.40 Y-9.30 E84.8368 F300
G1 E83.5368 F1800
G1 X-4.06 Y-7.74 F4800
G1 E84.8368 F1800
;structure:infill-sparse
;extrude_ratio:2
G1 X-4.06 Y-7.74 F4800
G1 X-3.47 Y-7.40 E84.8812 F3600
G1 X-3.47 Y-3.64 E85.1266
G1 X-4.06 Y-3.30 E85.1710
G1 X-4.06 Y3.30 E85.6017
G1 X-3.47 Y3.64 E85.6461
G1 X-3.47 Y7.40 E85.8915
G1 X-4.06 Y7.73 E85.9356
G1 X-4.06 Y9.06 E86.0224
G1 X-0.31 Y9.06 E86.2671
G1 X-3.19 Y7.40 E86.4841
G1 X-3.19 Y3.64 E86.7294
G1 X-0.14 Y1.88 E86.9592
G1 X-0.14 Y-1.88 E87.2046
G1 X-3.19 Y-3.64 E87.4344
G1 X-3.19 Y-7.40 E87.6797
G1 X-0.31 Y-9.06 E87.8967
G1 X0.31 Y-9.06 E87.9371
G1 X3.19 Y-7.40 E88.1540
G1 X3.19 Y-3.64 E88.3994
G1 X0.14 Y-1.88 E88.6292
G1 X0.14 Y1.88 E88.8746
G1 X3.19 Y3.64 E89.1044
G1 X3.19 Y7.40 E89.3497
G1 X0.31 Y9.06 E89.5666
G1 X4.06 Y9.06 E89.8113
G1 X4.06 Y7.73 E89.8981
G1 X3.47 Y7.40 E89.9423
G1 X3.47 Y3.64 E90.1876
G1 X4.06 Y3.30 E90.2321
G1 X4.06 Y-3.30 E90.6628
G1 X3.47 Y-3.64 E90.7072
G1 X3.47 Y-7.40 E90.9526
G1 X4.06 Y-7.74 E90.9970
;extrude_ratio:1
;layer:0.18
G1 E89.6970 F1800
G1 X-4.40 Y-9.40 F4800
G1 Z1.200 F420
G1 E90.9970 F1800
;structure:shell-inner
G1 X-4.40 Y-9.40 F4800
G1 X4.40 Y-9.40 E91.2841 F2880
G1 X4.40 Y-8.38 E91.3174
G1 X4.40 Y1.44 E91.6378 F3024
G1 X4.40 Y9.40 E91.8975 F3168
G1 X2.54 Y9.40 E91.9582
G1 X-4.40 Y9.40 E92.1847 F3312
G1 X-4.40 Y6.52 E92.2786
G1 X-4.40 Y0.70 E92.4685 F3456
G1 X-4.40 Y-1.30 E92.5338
G1 X-4.40 Y-3.30 E92.5990
G1 X-4.40 Y-5.30 E92.6643 F1764
G1 X-4.40 Y-7.30 E92.7296 F1152
G1 X-4.40 Y-9.30 E92.7948 F540
;structure:shell-outer
G1 X-4.80 Y-9.80 E92.7948 F300
G1 X4.80 Y-9.80 E93.1080 F1800
G1 X4.80 Y9.80 E93.7476
G1 X-4.80 Y9.80 E94.0608
G1 X-4.80 Y-9.70 E94.6970
G1 X-4.40 Y-9.30 E94.7032 F300
;layer:0.18
G1 Z1.380 F420
;structure:shell-inner
G1 X-4.40 Y-9.40 F4800
G1 X4.40 Y-9.40 E94.9903 F3600
G1 X4.40 Y9.40 E95.6037
G1 X-4.40 Y9.40 E95.8908
G1 X-4.40 Y0.70 E96.1747
G1 X-4.40 Y-1.30 E96.2400 F2988
G1 X-4.40 Y-3.30 E96.3052 F2376
G1 X-4.40 Y-5.30 E96.3705 F1764
G1 X-4.40 Y-7.30 E96.4357 F1152
G1 X-4.40 Y-9.30 E96.5010 F540
;structure:shell-outer
G1 X-4.80 Y-9.80 E96.5010 F300
G1 X4.80 Y-9.80 E96.8142 F1800
G1 X4.80 Y9.80 E97.4538
G1 X-4.80 Y9.80 E97.7670
G1 X-4.80 Y-9.70 E98.4032
G1 X-4.40 Y-9.30 E98.4094 F300
G1 E97.1094 F1800
G1 X-4.06 Y-7.74 F4800
G1 E98.4094 F1800
;structure:infill-sparse
;extrude_ratio:2
G1 X-4.06 Y-7.74 F4800
G1 X-3.47 Y-7.40 E98.4538 F3600
G1 X-3.47 Y-3.64 E98.6992
G1 X-4.06 Y-3.30 E98.7436
G1 X-4.06 Y3.30 E99.1743
G1 X-3.47 Y3.64 E99.2188
G1 X-3.47 Y7.40 E99.4641
G1 X-4.06 Y7.73 E99.5082
G1 X-4.06 Y9.06 E99.5950
G1 X-0.31 Y9.06 E99.8397
G1 X-3.19 Y7.40 E100.0567
G1 X-3.19 Y3.64 E100.3020
G1 X-0.14 Y1.88 E100.5318
G1 X-0.14 Y-1.88 E100.7772
G1 X-3.19 Y-3.64 E101.0070
G1 X-3.19 Y-7.40 E101.2523
G1 X-0.31 Y-9.06 E101.4693
G1 X0.31 Y-9.06 E101.5097
G1 X3.19 Y-7.40 E101.7266
G1 X3.19 Y-3.64 E101.9720
G1 X0.14 Y-1.88 E102.2018
G1 X0.14 Y1.88 E102.4472
G1 X3.19 Y3.64 E102.6770
G1 X3.19 Y7.40 E102.9223
G1 X0.31 Y9.06 E103.1392
G1 X4.06 Y9.06 E103.3840
G1 X4.06 Y7.73 E103.4707
G1 X3.47 Y7.40 E103.5149
G1 X3.47 Y3.64 E103.7602
G1 X4.06 Y3.30 E103.8047
G1 X4.06 Y-3.30 E104.2354
G1 X3.47 Y-3.64 E104.2798
G1 X3.47 Y-7.40 E104.5252
G1 X4.06 Y-7.74 E104.5696
;extrude_ratio:1
;layer:0.18
G1 E103.2696 F1800
G1 X-4.40 Y-9.40 F4800
G1 Z1.560 F420
G1 E104.5696 F1800
;structure:shell-inner
G1 X-4.40 Y-9.40 F4800
G1 X4.40 Y-9.40 E104.8567 F2880
G1 X4.40 Y-8.38 E104.8900
G1 X4.40 Y1.44 E105.2104 F3024
G1 X4.40 Y9.40 E105.4701 F3168
G1 X2.54 Y9.40 E105.5308
G1 X-4.40 Y9.40 E105.7573 F3312
G1 X-4.40 Y6.52 E105.8512
G1 X-4.40 Y0.70 E106.0411 F3456
G1 X-4.40 Y-1.30 E106.1064
G1 X-4.40 Y-3.30 E106.1716
G1 X-4.40 Y-5.30 E106.2369 F1764
G1 X-4.40 Y-7.30 E106.3022 F1152
G1 X-4.40 Y-9.30 E106.3674 F540
;structure:shell-outer
G1 X-4.80 Y-9.80 E106.3674 F300
G1 X4.80 Y-9.80 E106.6806 F1800
G1 X4.80 Y9.80 E107.3202
G1 X-4.80 Y9.80 E107.6334
G1 X-4.80 Y-9.70 E108.2696
G1 X-4.40 Y-9.30 E108.2758 F300
;layer:0.18
G1 Z1.740 F420
;structure:shell-inner
G1 X-4.40 Y-9.40 F4800
G1 X4.40 Y-9.40 E108.5629 F3600
G1 X4.40 Y9.40 E109.1763
G1 X-4.40 Y9.40 E109.4634
G1 X-4.40 Y0.70 E109.7473
G1 X-4.40 Y-1.30 E109.8126 F2988
G1 X-4.40 Y-3.30 E109.8778 F2376
G1 X-4.40 Y-5.30 E109.9431 F1764
G1 X-4.40 Y-7.30 E110.0083 F1152
G1 X-4.40 Y-9.30 E110.0736 F540
;structure:shell-outer
G1 X-4.80 Y-9.80 E110.0736 F300
G1 X4.80 Y-9.80 E110.3868 F1800
G1 X4.80 Y9.80 E111.0264
G1 X-4.80 Y9.80 E111.3396
G1 X-4.80 Y-9.70 E111.9758
G1 X-4.40 Y-9.30 E111.9820 F300
G1 E110.6820 F1800
G1 X-4.06 Y-7.74 F4800
G1 E111.9820 F1800
;structure:infill-sparse
